logos/processwire-icon.svg

<?xml version="1.0" encoding="UTF-8"?>
<svg width="256px" height="256px" viewBox="0 0 256 256" version="1.1" xmlns="http://www.w3.org/2000/svg">
    <title>ProcessWire</title>
    <g>
        <path d="M234.02346,56.2065308 C226.258185,44.611679 213.340949,31.3634673 200.370381,22.7873303 C173.426584,4.33370223 142.216153,-2.21573572 114.611028,0.642976615 C85.8219124,3.7470262 61.1714319,14.5951994 40.9049183,32.6861551 C22.1317268,49.454423 9.73715371,69.9560837 4.27586162,89.5083961 C-1.24942998,109.060708 -0.513435537,127.16233 1.45988289,140.794548 C3.53986718,154.629437 10.4304818,172.037714 10.4304818,172.037714 C11.8384712,175.376434 13.7904564,176.731123 14.8037821,177.296465 C19.8384108,180.048509 28.105015,177.627137 34.4516337,170.50169 C34.7716313,170.064349 34.9422967,169.45634 34.7716313,168.944332 C33.000978,162.128223 32.3609828,156.997474 31.7316543,153.029411 C30.2916651,145.178619 29.65167,132.026409 30.6116627,119.866214 C31.0916591,113.284776 32.3716494,106.244663 34.6116325,98.8632121 C38.9422665,84.2816459 48.0728642,69.0600695 62.3447564,56.4092007 C77.715307,42.7876498 97.4271581,34.3715153 116.16835,32.1954806 C122.738967,31.4061347 135.240206,30.6487893 150.290759,34.3608485 C153.501401,35.1608613 167.282631,38.7555854 182.023853,48.7397448 C192.754438,56.0358614 201.394373,65.0386719 207.346328,73.9454808 C213.404949,82.44695 219.986232,96.783179 221.916885,107.279347 C224.647531,119.226204 224.647531,131.88774 222.706212,144.218603 C220.30623,156.570801 215.975596,168.581659 209.24498,179.152494 C204.605015,187.344625 194.983755,198.171465 183.613174,206.299595 C173.362585,213.510377 161.66134,218.715793 149.650764,221.595839 C143.57081,223.035863 137.469522,223.95321 131.218903,224.15588 C125.661612,224.32655 118.291001,224.15588 113.117706,223.281199 C105.427098,222.054513 103.82711,220.091815 102.067123,217.425106 C102.067123,217.425106 100.840466,215.505075 100.499135,210.363659 C100.616467,163.376243 100.595134,175.920443 100.595134,151.525386 C100.595134,144.63461 100.371136,138.383843 100.435135,132.709086 C100.755133,123.396938 101.54446,116.996835 108.20041,110.063391 C113.01104,104.953976 119.741656,101.87126 127.154934,101.87126 C129.405583,101.87126 137.160191,101.977929 143.97614,107.642019 C151.282751,113.74345 152.509409,122.084917 152.797407,124.314285 C154.461394,137.359827 145.842792,147.077316 142.536151,149.541355 C138.440182,152.613404 134.760209,154.106761 132.274895,154.981442 C126.984268,156.752137 121.170979,157.264145 115.944352,156.922806 C115.144358,156.869472 114.41903,157.392147 114.259031,158.19216 L112.499044,167.322972 C110.781724,174.256416 114.632361,176.795124 116.872345,177.691138 C124.029624,179.899173 130.376243,180.816521 137.896186,180.251179 C149.426765,179.4405 160.797346,174.896427 170.450607,165.893616 C178.663878,158.085491 183.346509,148.453338 184.946497,137.679832 C186.546485,125.722308 184.466501,112.847435 179.015875,101.945928 C173.021254,89.9244027 162.674665,79.886909 149.042768,74.3934879 C135.272206,68.9747347 124.317622,68.7827317 110.195062,72.3881226 L110.035063,72.4414568 C100.861799,75.5988405 93.0111915,79.4922361 84.8405865,87.9297042 C79.2406288,93.7537972 74.6539968,100.804576 71.8593512,108.762037 C69.0860388,116.783499 68.3393778,122.767594 68.2113788,132.069076 C68.0407134,138.959853 68.3713775,145.359955 68.3713775,151.354718 L68.3713775,190.832681 C68.3713775,203.462216 67.9447141,205.648918 68.3713775,212.145022 C68.6060424,216.454424 69.2033713,221.329169 71.091357,226.566585 C73.0326757,232.337344 77.1073116,238.257439 79.9019571,240.988149 C83.8165942,245.158882 88.7978899,248.508269 93.693853,250.588303 C104.904435,255.569716 120.125653,256.359061 132.466893,255.879054 C140.637498,255.569716 148.85077,254.43903 156.904042,252.529667 C173.010587,248.700272 188.477137,241.734827 202.077034,232.070674 C216.658258,221.798509 229.330162,207.782286 236.327442,195.878096 C245.298041,181.733869 251.100664,165.861615 254.119308,149.552022 C256.839287,133.210428 256.711288,116.452826 253.063316,100.35657 C250.183338,85.4229975 242.492729,69.0387357 233.61813,55.8118579 L234.02346,56.2065308 L234.02346,56.2065308 Z" fill="#417EDF"></path>
    </g>
</svg>

<?xml version="1.0" encoding="UTF-8"?>
<svg width="256" height="256" version="1.1" xmlns="http://www.w3.org/2000/svg">
	<path d="M234.023 56.207c-7.765-11.595-20.682-24.844-33.653-33.42C173.427 4.334 142.216-2.216 114.611.643c-28.79 3.104-53.44 13.952-73.706 32.043-18.773 16.768-31.168 37.27-36.63 56.822-5.524 19.553-4.788 37.654-2.815 51.287 2.08 13.834 8.97 31.243 8.97 31.243 1.408 3.338 3.36 4.693 4.374 5.258 5.034 2.753 13.301.331 19.648-6.794.32-.438.49-1.046.32-1.558-1.771-6.816-2.411-11.947-3.04-15.915-1.44-7.85-2.08-21.003-1.12-33.163.48-6.581 1.76-13.621 4-21.003 4.33-14.581 13.46-29.803 27.733-42.454 15.37-13.621 35.082-22.037 53.823-24.214 6.571-.789 19.072-1.546 34.123 2.166 3.21.8 16.992 4.395 31.733 14.379 10.73 7.296 19.37 16.299 25.322 25.205 6.059 8.502 12.64 22.838 14.57 33.334 2.732 11.947 2.732 24.609.79 36.94-2.4 12.352-6.73 24.363-13.461 34.933-4.64 8.193-14.261 19.02-25.632 27.148-10.25 7.21-21.952 12.416-33.962 15.296-6.08 1.44-12.181 2.357-18.432 2.56-5.557.17-12.928 0-18.101-.875-7.69-1.226-9.29-3.19-11.05-5.856 0 0-1.228-1.92-1.569-7.061.117-46.988.096-34.444.096-58.839 0-6.89-.224-13.141-.16-18.816.32-9.312 1.11-15.712 7.765-22.646 4.811-5.109 11.542-8.192 18.955-8.192 2.25 0 10.005.107 16.821 5.771 7.307 6.101 8.533 14.443 8.821 16.672 1.664 13.046-6.954 22.763-10.26 25.227-4.097 3.072-7.777 4.566-10.262 5.44-5.29 1.771-11.104 2.283-16.33 1.942-.8-.054-1.526.47-1.686 1.27l-1.76 9.13c-1.717 6.933 2.133 9.472 4.373 10.368 7.158 2.208 13.504 3.126 21.024 2.56 11.53-.81 22.901-5.355 32.555-14.357 8.213-7.809 12.896-17.44 14.495-28.214 1.6-11.958-.48-24.833-5.93-35.734-5.995-12.022-16.341-22.06-29.973-27.553-13.77-5.418-24.725-5.61-38.848-2.005l-.16.053c-9.173 3.158-17.024 7.051-25.194 15.489-5.6 5.824-10.187 12.875-12.982 20.832-2.773 8.021-3.52 14.006-3.648 23.307-.17 6.89.16 13.291.16 19.286v39.478c0 12.63-.426 14.816 0 21.312.235 4.31.832 9.184 2.72 14.422 1.942 5.77 6.016 11.69 8.811 14.421 3.915 4.17 8.896 7.52 13.792 9.6 11.21 4.982 26.432 5.771 38.773 5.291 8.17-.31 16.384-1.44 24.437-3.35 16.107-3.829 31.573-10.794 45.173-20.458 14.581-10.272 27.253-24.289 34.25-36.193 8.971-14.144 14.774-30.016 17.792-46.326 2.72-16.342 2.592-33.1-1.056-49.195-2.88-14.934-10.57-31.318-19.445-44.545l.405.395Z" fill="#417EDF"/>
</svg>
